X: 5321
T: Brucie And The Troopers
R: reel
M: 4/4
K: Gmajor
|:dB B2 ABGA|Bded BAAe|dB B2 ABGA|Bdgd BGGe|
dB B2 ABGA|Bded BAAe|dBde gage|dBGB AGGe:|
|:g3d eged|dB B2 ABGf|g3d eged|eaag agef|
g3d eged|dB B2 ABGB|dB B2 ABGA|Bdgf g3d:|

